images/icons/gallery.svg

<svg height="32pt" viewBox="0 0 32 32" width="32pt" xmlns="http://www.w3.org/2000/svg"><g fill="#fff"><path d="m16.207031 11.875c-1.804687 0-3.265625 1.460938-3.265625 3.265625 0 1.800781 1.460938 3.261719 3.265625 3.261719 1.800781 0 3.261719-1.460938 3.261719-3.261719 0-1.804687-1.460938-3.265625-3.261719-3.265625zm0 4.976562c-.945312 0-1.710937-.765624-1.710937-1.710937s.765625-1.710937 1.710937-1.710937c.941407 0 1.707031.765624 1.707031 1.710937s-.765624 1.710937-1.707031 1.710937zm0 0"/><path d="m29.222656 4.414062-21.214844-2.410156c-.824218-.117187-1.660156.125-2.292968.664063-.636719.492187-1.042969 1.21875-1.128906 2.019531l-.386719 3.1875h-1.207031c-1.707032 0-2.992188 1.515625-2.992188 3.222656v15.894532c-.0429688 1.628906 1.246094 2.988281 2.875 3.03125h.117188 21.335937c1.707031 0 3.261719-1.320313 3.261719-3.03125v-.621094c.53125-.101563 1.035156-.316406 1.476562-.621094.632813-.53125 1.035156-1.28125 1.128906-2.101562l1.785157-15.773438c.183593-1.714844-1.046875-3.257812-2.757813-3.460938zm-3.1875 22.578126c0 .855468-.851562 1.476562-1.707031 1.476562h-21.335937c-.769532.023438-1.414063-.585938-1.4375-1.355469-.003907-.042969 0-.082031 0-.121093v-2.875l6.023437-4.429688c.722656-.554688 1.742187-.507812 2.410156.117188l4.234375 3.730468c.644532.539063 1.453125.839844 2.292969.851563.65625.011719 1.304687-.164063 1.867187-.503907l7.652344-4.429687zm0-9.363282-8.46875 4.933594c-.726562.429688-1.648437.351562-2.292968-.195312l-4.273438-3.769532c-1.226562-1.050781-3.015625-1.117187-4.316406-.15625l-5.128906 3.730469v-11.074219c0-.855468.582031-1.667968 1.4375-1.667968h21.335937c.910156.035156 1.648437.757812 1.707031 1.667968zm4.394532-9.964844c0 .003907 0 .011719-.003907.015626l-1.824219 15.777343c.003907.40625-.183593.796875-.503906 1.046875-.15625.15625-.507812.234375-.507812.3125v-13.71875c-.058594-1.769531-1.492188-3.183594-3.261719-3.222656h-18.574219l.347656-3.03125c.078126-.394531.28125-.75.582032-1.011719.34375-.234375.753906-.34375 1.167968-.3125l21.175782 2.449219c.855468.082031 1.484375.839844 1.402344 1.695312zm0 0"/></g></svg>

<?xml version="1.0" encoding="UTF-8"?>
<svg xmlns="http://www.w3.org/2000/svg" xmlns:xlink="http://www.w3.org/1999/xlink" width="32pt" height="32pt" viewBox="0 0 32 32" version="1.1">
<g id="surface1">
<path style=" stroke:none;fill-rule:nonzero;fill:rgb(255%,255%,255%);fill-opacity:1;" d="M 16.207031 11.875 C 14.402344 11.875 12.941406 13.335938 12.941406 15.140625 C 12.941406 16.941406 14.402344 18.402344 16.207031 18.402344 C 18.007812 18.402344 19.46875 16.941406 19.46875 15.140625 C 19.46875 13.335938 18.007812 11.875 16.207031 11.875 Z M 16.207031 16.851562 C 15.261719 16.851562 14.496094 16.085938 14.496094 15.140625 C 14.496094 14.195312 15.261719 13.429688 16.207031 13.429688 C 17.148438 13.429688 17.914062 14.195312 17.914062 15.140625 C 17.914062 16.085938 17.148438 16.851562 16.207031 16.851562 Z M 16.207031 16.851562 "/>
<path style=" stroke:none;fill-rule:nonzero;fill:rgb(255%,255%,255%);fill-opacity:1;" d="M 29.222656 4.414062 L 8.007812 2.003906 C 7.183594 1.886719 6.347656 2.128906 5.714844 2.667969 C 5.078125 3.160156 4.671875 3.886719 4.585938 4.6875 L 4.199219 7.875 L 2.992188 7.875 C 1.285156 7.875 0 9.390625 0 11.097656 L 0 26.992188 C -0.0429688 28.621094 1.246094 29.980469 2.875 30.023438 C 2.914062 30.023438 2.953125 30.023438 2.992188 30.023438 L 24.328125 30.023438 C 26.035156 30.023438 27.589844 28.703125 27.589844 26.992188 L 27.589844 26.371094 C 28.121094 26.269531 28.625 26.054688 29.066406 25.75 C 29.699219 25.21875 30.101562 24.46875 30.195312 23.648438 L 31.980469 7.875 C 32.164062 6.160156 30.933594 4.617188 29.222656 4.414062 Z M 26.035156 26.992188 C 26.035156 27.847656 25.183594 28.46875 24.328125 28.46875 L 2.992188 28.46875 C 2.222656 28.492188 1.578125 27.882812 1.554688 27.113281 C 1.550781 27.070312 1.554688 27.03125 1.554688 26.992188 L 1.554688 24.117188 L 7.578125 19.6875 C 8.300781 19.132812 9.320312 19.179688 9.988281 19.804688 L 14.222656 23.535156 C 14.867188 24.074219 15.675781 24.375 16.515625 24.386719 C 17.171875 24.398438 17.820312 24.222656 18.382812 23.882812 L 26.035156 19.453125 Z M 26.035156 17.628906 L 17.566406 22.5625 C 16.839844 22.992188 15.917969 22.914062 15.273438 22.367188 L 11 18.597656 C 9.773438 17.546875 7.984375 17.480469 6.683594 18.441406 L 1.554688 22.171875 L 1.554688 11.097656 C 1.554688 10.242188 2.136719 9.429688 2.992188 9.429688 L 24.328125 9.429688 C 25.238281 9.464844 25.976562 10.1875 26.035156 11.097656 Z M 30.429688 7.664062 C 30.429688 7.667969 30.429688 7.675781 30.425781 7.679688 L 28.601562 23.457031 C 28.605469 23.863281 28.417969 24.253906 28.097656 24.503906 C 27.941406 24.660156 27.589844 24.738281 27.589844 24.816406 L 27.589844 11.097656 C 27.53125 9.328125 26.097656 7.914062 24.328125 7.875 L 5.753906 7.875 L 6.101562 4.84375 C 6.179688 4.449219 6.382812 4.09375 6.683594 3.832031 C 7.027344 3.597656 7.4375 3.488281 7.851562 3.519531 L 29.027344 5.96875 C 29.882812 6.050781 30.511719 6.808594 30.429688 7.664062 Z M 30.429688 7.664062 "/>
</g>
</svg>
